X: 21882
T: THE EMERALD HORNPIPE
C: By W.C. Paton, Edinburgh
R: hornpipe
B: K\"ohler's Violin Repository, v.2, 1885 p.188 #2
F: http://www.archive.org/details/klersviolinrepos02rugg
Z: 2012 John Chambers <jc:trillian.mit.edu>
M: C|
L: 1/8
K: Bb
u(Bc) |\
(dB)FB (DB)FB | (cB)cd B2cd | (eg)fe (dc)BA | (cB)AG (^Fe)dc |\
(dB)FB (DB)FB | (cB)cd B2cd | (ec)AF (fd)BF | G(cBA) B2 :|
|: u(dD) |\
DG2A B2c2 | d2"^>"e2 "^>"d4 | ((3edc) ((3edc) ((3dcB) ((3dcB) | ((3cBA) ((3cBA) G2d2 |\
DG2A B2c2 | d2"^>"e2 "^>"d4 | ((3edc) ((3edc) ((3dcB) ((3dcB) | A2G2G2 :|

%%sep 2 1 500

